src/data/imges/icon-6.svg

<svg width="30" height="48" xmlns="http://www.w3.org/2000/svg"><g fill="#F95738" fill-rule="evenodd"><path d="M20.8 36.6H9.2c-.6 0-1-.4-1-1v-8.1c-1.6-1.1-2.6-2.9-2.6-4.9 0-3.3 2.7-5.9 5.9-5.9 1.3 0 2.5.4 3.5 1.1 1-.7 2.2-1.1 3.5-1.1 3.3 0 5.9 2.7 5.9 5.9 0 2-1 3.8-2.6 4.9v8.1c0 .5-.4 1-1 1Zm-10.6-2h9.6v-7.7c0-.4.2-.7.5-.9 1.3-.7 2.1-2 2.1-3.5 0-2.2-1.8-3.9-3.9-3.9-1.1 0-2 .4-2.8 1.2-.4.4-1 .4-1.4 0-.7-.7-1.7-1.2-2.8-1.2-2.2 0-3.9 1.8-3.9 3.9 0 1.5.8 2.8 2.1 3.5.3.2.5.5.5.9v7.7Z"/><path d="M11.5 28.5c-3.3 0-5.9-2.7-5.9-5.9 0-.6.4-1 1-1s1 .4 1 1c0 2.2 1.8 3.9 3.9 3.9.7 0 1.5-.2 2.1-.6.5-.3 1.1-.2 1.4.3.3.5.2 1.1-.3 1.4-1 .5-2.1.9-3.2.9Z"/><path d="M28.4 47.5H1.6c-.6 0-1-.4-1-1V9.4c0-.6.4-1 1-1h26.8c.6 0 1 .4 1 1v37.1c0 .6-.4 1-1 1Zm-25.8-2h24.8V10.4H2.6v35.1Z"/><path d="M1.6 10.4c-.5 0-.9-.3-1-.8-.1-.6.3-1.1.8-1.2.1 0 13.8-2.9 18.1-7.5.3-.3.7-.4 1.1-.3.4.1.6.5.6.9v7.9c0 .6-.4 1-1 1s-1-.4-1-1V3.7c-5.7 4.2-16.9 6.5-17.4 6.6-.1 0-.1.1-.2.1Z"/></g></svg>

<?xml version="1.0" encoding="UTF-8" standalone="no"?>
<svg width="30px" height="48px" viewBox="0 0 30 48" version="1.1" xmlns="http://www.w3.org/2000/svg" xmlns:xlink="http://www.w3.org/1999/xlink">
    <!-- Generator: Sketch 39.1 (31720) - http://www.bohemiancoding.com/sketch -->
    <title>Slice 1</title>
    <desc>Created with Sketch.</desc>
    <defs></defs>
    <g id="Page-1" stroke="none" stroke-width="1" fill="none" fill-rule="evenodd">
        <g id="noun_180074_cc" fill="#F95738">
            <g id="Group">
                <path d="M20.8,36.6 L9.2,36.6 C8.6,36.6 8.2,36.2 8.2,35.6 L8.2,27.5 C6.6,26.4 5.6,24.6 5.6,22.6 C5.6,19.3 8.3,16.7 11.5,16.7 C12.8,16.7 14,17.1 15,17.8 C16,17.1 17.2,16.7 18.5,16.7 C21.8,16.7 24.4,19.4 24.4,22.6 C24.4,24.6 23.4,26.4 21.8,27.5 L21.8,35.6 C21.8,36.1 21.4,36.6 20.8,36.6 L20.8,36.6 Z M10.2,34.6 L19.8,34.6 L19.8,26.9 C19.8,26.5 20,26.2 20.3,26 C21.6,25.3 22.4,24 22.4,22.5 C22.4,20.3 20.6,18.6 18.5,18.6 C17.4,18.6 16.5,19 15.7,19.8 C15.3,20.2 14.7,20.2 14.3,19.8 C13.6,19.1 12.6,18.6 11.5,18.6 C9.3,18.6 7.6,20.4 7.6,22.5 C7.6,24 8.4,25.3 9.7,26 C10,26.2 10.2,26.5 10.2,26.9 C10.2,26.9 10.2,34.6 10.2,34.6 L10.2,34.6 Z" id="Shape"></path>
                <path d="M11.5,28.5 C8.2,28.5 5.6,25.8 5.6,22.6 C5.6,22 6,21.6 6.6,21.6 C7.2,21.6 7.6,22 7.6,22.6 C7.6,24.8 9.4,26.5 11.5,26.5 C12.2,26.5 13,26.3 13.6,25.9 C14.1,25.6 14.7,25.7 15,26.2 C15.3,26.7 15.2,27.3 14.7,27.6 C13.7,28.1 12.6,28.5 11.5,28.5 L11.5,28.5 Z" id="Shape"></path>
                <path d="M28.4,47.5 L1.6,47.5 C1,47.5 0.6,47.1 0.6,46.5 L0.6,9.4 C0.6,8.8 1,8.4 1.6,8.4 L28.4,8.4 C29,8.4 29.4,8.8 29.4,9.4 L29.4,46.5 C29.4,47.1 29,47.5 28.4,47.5 L28.4,47.5 Z M2.6,45.5 L27.4,45.5 L27.4,10.4 L2.6,10.4 L2.6,45.5 L2.6,45.5 Z" id="Shape"></path>
                <path d="M1.6,10.4 C1.1,10.4 0.7,10.1 0.6,9.6 C0.5,9 0.9,8.5 1.4,8.4 C1.5,8.4 15.2,5.5 19.5,0.9 C19.8,0.6 20.2,0.5 20.6,0.6 C21,0.7 21.2,1.1 21.2,1.5 L21.2,9.4 C21.2,10 20.8,10.4 20.2,10.4 C19.6,10.4 19.2,10 19.2,9.4 L19.2,3.7 C13.5,7.9 2.3,10.2 1.8,10.3 C1.7,10.3 1.7,10.4 1.6,10.4 L1.6,10.4 Z" id="Shape"></path>
            </g>
        </g>
    </g>
</svg>
